X:390
T:Rose in the Heather
R:Jig
M:6/8
L:1/8
Q:3/8=120
K:D
E|FAF EFE|DFA BAF|ABd ede|fdB AFE|
FAF EFE|DFA BAF|AdB AFE|FDC D2:|
e|fdB ABd|faa afd|~g3 fed|~B3 efg|
fdB ABd|faa afa|baf fge|fdc d2:|
